images/tiles/t9.svg

<svg xmlns="http://www.w3.org/2000/svg" width="1200" height="1200">
  <style>
    .fillColor {
      fill: #dee1e6;
    }
    .strokeColor {
      stroke: #292F33;
      stroke-width: 30;
    }
  </style>
  <g id="group">
    <path class="fillColor" style="stroke-width:0;" d="M360 600A360 360 0 0 1 0 960V720a120 120 0 1 0 0-240V240a360 360 0 0 1 360 360zM720 0h240a240 240 0 0 0 240 240v240A480 480 0 0 1 720 0z"/>
    <path class="fillColor" style="stroke-width:0;" d="M240 1200c0-240 240-367 240-600 0-247-240-360-240-600h240c0 480 480 720 480 1200H720c1.3-77.2-10.3-166.7-24.7-240-20.7-105.2-54.6-172.8-127-86-66.1 79.5-88.3 183-88.3 326H240zM1200 720c-142 0-150.7-94.5-223.2-50-49 30-48.3 102.7 5.5 177 34 46.6 114.7 113 217.7 113"/>
    <path class="strokeColor" style="fill:none;" d="M0 240a360 360 0 1 1 0 720M0 720a120 120 0 1 0 0-240M1200 480A480 480 0 0 1 720 0h0M960 0a240 240 0 0 0 240 240M480 0h0c0 480 480 720 480 1200M720 1200c1.3-77.2-10.3-166.7-24.7-240-20.7-105.2-54.6-172.8-127-86-66.1 79.5-88.3 183-88.3 326"/>
    <path class="strokeColor" style="fill:none;" d="M240 1200c0-240 240-367 240-600 0-247-240-360-240-600h0M1200 720c-142 0-150.7-94.5-223.2-50-49 30-48.3 102.7 5.5 177 34 46.6 114.7 113 217.7 113"/>
  </g>
</svg>

<svg xmlns="http://www.w3.org/2000/svg" width="1200" height="1200">
  <style>
    .primary {
      fill: #DEE1E6;
    }
    .secondary {
      fill: #F1F3F4;
    }
    .stroke {
      stroke: #292F33;
      stroke-width: 30;
      fill:none;
    }
  </style>
  <path class="primary" d="M 240,1200 C 240,960 480,833 480,600 480,353 240,240 240,0 H 480 C 480,480 960,720 960,1200 H 720 C 721.3,1122.8 709.7,1033.3 695.3,960 674.6,854.8 640.7,787.2 568.3,874 502.2,953.5 480,1057 480,1200 Z M 1200,720 C 1058,720 1049.3,625.5 976.8,670 927.8,700 928.5,772.7 982.3,847 1016.3,893.6 1097,960 1200,960 M 360,600 A 360,360 0 0 1 0,960 V 720 A 120,120 0 1 0 0,480 V 240 A 360,360 0 0 1 360,600 Z M 720,0 H 960 A 240,240 0 0 0 1200,240 V 480 A 480,480 0 0 1 720,0 Z" />
  <path class="secondary" d="M 0,720 C 66.274215,720 119.99995,666.27417 119.99995,600 119.99995,533.72583 66.274215,480 0,480 Z M 960,0 C 960,132.54834 1067.4517,240 1200,240 V 0 Z M 720,1200 C 721.3,1122.8 709.7,1033.3 695.3,960 674.6,854.8 640.7,787.2 568.3,874 502.2,953.5 480,1057 480,1200 Z M 240,1200 C 240,960 480,833 480,600 480,353 240,240 240,0 V 0 H 0 V 240 C 198.82264,240 359.99984,401.17749 359.99984,600 359.99984,798.82251 198.82264,960 0,960 V 1200 Z M 720,0 V 0 C 720,127.30392 770.57128,249.39379 860.58875,339.41125 950.60621,429.42872 1072.6961,480 1200,480 V 720 C 1058,720 1049.3,625.5 976.8,670 927.8,700 928.5,772.7 982.3,847 1016.3,893.6 1097,960 1200,960 V 1200 H 960 C 960,720 480,480 480,0 V 0 Z" />
  <path class="stroke" d="M 240,1200 C 240,960 480,833 480,600 480,353 240,240 240,0 V 0 M 1200,720 C 1058,720 1049.3,625.5 976.8,670 927.8,700 928.5,772.7 982.3,847 1016.3,893.6 1097,960 1200,960 M 0,240 A 360,360 0 1 1 0,960 M 0,720 A 120,120 0 1 0 0,480 M 1200,480 A 480,480 0 0 1 720,0 V 0 M 960,0 A 240,240 0 0 0 1200,240 M 480,0 V 0 C 480,480 960,720 960,1200 M 720,1200 C 721.3,1122.8 709.7,1033.3 695.3,960 674.6,854.8 640.7,787.2 568.3,874 502.2,953.5 480,1057 480,1200" />
</svg>
